icon-themes/sifr_svg/formula/res/refinp2.svg

<svg viewBox="0 0 16 16" xmlns="http://www.w3.org/2000/svg"><path d="m1.9 1c-.5 0-.9.4-.9.9v6.1h5v-2h-3v-2h10v2h-3v2h5v-6.1c0-.5-.4-.9-.9-.9zm5.1 6v4.6l-.3-.3c-.2-.2-.4-.3-.7-.3h-1v1c0 .3.1.5.3.7l2 2 .3.3h.8l.3-.3 2-2c.2-.2.3-.4.3-.7v-1h-1c-.3 3-.5.1-.7.3l-.3.3v-4.6zm-6 2v6h5l-1-2h-2v-2h1v-2zm11 0v2h1v2h-2l-1 2h5v-6z" fill="#555753"/></svg>

<svg xmlns="http://www.w3.org/2000/svg" viewBox="0 0 16 16">
  <path
     style="fill:#555753"
     d="M 1.9 1 C 1.4 1 1 1.4 1 1.9 L 1 8 L 6 8 L 6 6 L 3 6 L 3 4 L 13 4 L 13 6 L 10 6 L 10 8 L 15 8 L 15 1.9 C 15 1.4 14.6 1 14.1 1 L 1.9 1 z M 7 7 L 7 11.6 L 6.7 11.3 C 6.5 11.1 6.3 11 6 11 L 5 11 L 5 12 C 5 12.3 5.1 12.5 5.3 12.7 L 7.3 14.7 L 7.6 15 L 8.4 15 L 8.7 14.7 L 10.7 12.7 C 10.9 12.5 11 12.3 11 12 L 11 11 L 10 11 C 9.7 14 9.5 11.1 9.3 11.3 L 9 11.6 L 9 7 L 7 7 z M 1 9 L 1 15 L 6 15 L 5 13 L 3 13 L 3 11 L 4 11 L 4 9 L 1 9 z M 12 9 L 12 11 L 13 11 L 13 13 L 11 13 L 10 15 L 15 15 L 15 9 L 12 9 z "
     />
</svg>
